src/actions/24/document-import.svg

<svg xmlns="http://www.w3.org/2000/svg" viewBox="0 0 24 24">
  <defs id="defs3051">
    <style type="text/css" id="current-color-scheme">
      .ColorScheme-Text {
        color:#2e3440;
      }
      </style>
  </defs>
 <path style="fill:currentColor;fill-opacity:1;stroke:none" 
     d="M 5 4 L 5 19 L 5 20 L 6 20 L 12 20 L 12 19 L 6 19 L 6 5 L 18 5 L 18 16 L 13.707031 16 L 16 13.707031 L 15.292969 13 L 12.5 15.792969 L 11.792969 16.5 L 12.5 17.207031 L 15.292969 20 L 16 19.292969 L 13.707031 17 L 19 17 L 19 16 L 19 4 L 6 4 L 5 4 z "
     class="ColorScheme-Text"
     />
</svg>

<svg viewBox="0 0 24 24" xmlns="http://www.w3.org/2000/svg">
 <defs>
  <style type="text/css">.ColorScheme-Text {
        color:#2e3440;
      }</style>
 </defs>
 <path class="ColorScheme-Text" d="m5 4v15 1h1 6v-1h-6v-14h12v11h-4.293l2.293-2.293-0.70703-0.70703-3.5 3.5 3.5 3.5 0.70703-0.70703-2.293-2.293h5.293v-1-12h-13-1z" fill="currentColor"/>
</svg>
